svg/watermark.svg

<svg xmlns="http://www.w3.org/2000/svg" viewBox="0 0 24 24"><path d="M21 3H3a2 2 0 0 0-2 2v14a2 2 0 0 0 2 2h18a2 2 0 0 0 2-2V5a2 2 0 0 0-2-2m0 16h-9v-6h9z"/></svg>

<?xml version="1.0" encoding="UTF-8"?><!DOCTYPE svg PUBLIC "-//W3C//DTD SVG 1.1//EN" "http://www.w3.org/Graphics/SVG/1.1/DTD/svg11.dtd"><svg xmlns="http://www.w3.org/2000/svg" xmlns:xlink="http://www.w3.org/1999/xlink" version="1.1" id="mdi-watermark" width="24" height="24" viewBox="0 0 24 24"><path d="M21,3H3A2,2 0 0,0 1,5V19A2,2 0 0,0 3,21H21A2,2 0 0,0 23,19V5A2,2 0 0,0 21,3M21,19H12V13H21V19Z" /></svg>
